picto/loading-ramp-for-lorries-left.svg

<svg class="color-immutable" width="24" height="24" viewBox="0 0 24 24" fill="none" xmlns="http://www.w3.org/2000/svg"><path d="M0 22.5V1.5C0 0.675 0.675 0 1.5 0H22.5C23.325 0 24 0.675 24 1.5V22.5C24 23.325 23.325 24 22.5 24H1.5C0.675 24 0 23.325 0 22.5Z" fill="#2D327D"/><path d="M6.60004 13.5C6.60004 14.071 6.80604 14.595 7.14904 15C7.57504 15.505 8.21204 15.825 8.92504 15.825C9.63704 15.825 10.275 15.505 10.701 15C11.044 14.595 11.25 14.071 11.25 13.5C11.25 12.216 10.209 11.175 8.92504 11.175C7.64104 11.175 6.60004 12.216 6.60004 13.5ZM7.72504 13.5C7.72504 12.837 8.26204 12.3 8.92504 12.3C9.58804 12.3 10.125 12.837 10.125 13.5C10.125 14.163 9.58804 14.7 8.92504 14.7C8.26204 14.7 7.72504 14.163 7.72504 13.5Z" fill="white"/><path d="M20.999 12.6H12.374V14.1H20.999V12.6Z" fill="white"/><path d="M2.99902 8.175L3.00002 13.725C3.00002 13.932 3.16802 14.1 3.37502 14.1H5.32502C5.53202 14.1 5.70002 13.932 5.70002 13.725V13.5V13.489C5.70602 11.713 7.14702 10.275 8.92502 10.275C9.84002 10.275 10.666 10.656 11.252 11.267L11.249 4.35H5.02602C4.41502 4.35 3.88002 4.76 3.72202 5.35L3.04602 7.825C3.01502 7.939 2.99902 8.057 2.99902 8.175ZM8.99902 5.025C9.20602 5.025 9.37402 5.193 9.37402 5.4V7.575C9.37402 7.782 9.20602 7.95 8.99902 7.95H4.19902C3.99202 7.95 3.82402 7.782 3.82402 7.575C3.82402 7.542 3.82802 7.51 3.83702 7.478L4.37302 5.47C4.44402 5.207 4.67902 5.025 4.95002 5.025H8.99902Z" fill="white"/><path d="M21 16.2H3V17.325H21V16.2Z" fill="white"/><path d="M3 20.325H21V21H3V20.325Z" fill="white"/><path d="M4.49805 18.787C4.49805 18.187 4.98505 17.701 5.58605 17.701C6.18605 17.701 6.67305 18.188 6.67305 18.787C6.67305 19.388 6.18605 19.875 5.58605 19.875C4.98505 19.875 4.49805 19.388 4.49805 18.787Z" fill="white"/><path d="M7.422 18.787C7.422 18.187 7.91 17.701 8.51 17.701C9.11 17.701 9.598 18.188 9.598 18.787C9.598 19.388 9.11 19.875 8.51 19.875C7.91 19.875 7.422 19.388 7.422 18.787Z" fill="white"/><path d="M14.398 18.787C14.398 18.187 14.885 17.701 15.486 17.701C16.086 17.701 16.573 18.188 16.573 18.787C16.573 19.388 16.086 19.875 15.486 19.875C14.885 19.875 14.398 19.388 14.398 18.787Z" fill="white"/><path d="M17.322 18.787C17.322 18.187 17.81 17.701 18.41 17.701C19.01 17.701 19.498 18.188 19.498 18.787C19.498 19.388 19.01 19.875 18.41 19.875C17.81 19.875 17.322 19.388 17.322 18.787Z" fill="white"/><path d="M21 7.275H15.3C15.093 7.275 14.925 7.107 14.925 6.9C14.925 6.693 15.093 6.525 15.3 6.525H21V5.775H15.3C15.093 5.775 14.925 5.607 14.925 5.4C14.925 5.193 15.093 5.025 15.3 5.025H21V3H12.75C12.543 3 12.375 3.168 12.375 3.375C12.375 6 12.375 11.85 12.375 11.85L21 11.846V7.275Z" fill="white"/></svg>

<svg class="color-immutable" width="24" height="24" viewBox="0 0 24 24" fill="none" xmlns="http://www.w3.org/2000/svg"><g clip-path="url(#a)"><path d="M0 22.5v-21C0 .675.675 0 1.5 0h21c.825 0 1.5.675 1.5 1.5v21c0 .825-.675 1.5-1.5 1.5h-21C.675 24 0 23.325 0 22.5Z" fill="#2D327D"/><path d="M6.6 13.5c0 .571.206 1.095.549 1.5a2.316 2.316 0 0 0 1.776.825c.712 0 1.35-.32 1.776-.825A2.325 2.325 0 1 0 6.6 13.5Zm1.125 0a1.2 1.2 0 1 1 2.4 0 1.2 1.2 0 0 1-2.4 0ZM20.999 12.6h-8.625v1.5h8.625v-1.5Z" fill="#fff"/><path d="M2.999 8.175 3 13.725c0 .207.168.375.375.375h1.95a.375.375 0 0 0 .375-.375V13.489a3.225 3.225 0 0 1 5.552-2.222l-.003-6.917H5.026a1.35 1.35 0 0 0-1.304 1l-.676 2.475a1.336 1.336 0 0 0-.047.35Zm6-3.15c.207 0 .375.168.375.375v2.175a.375.375 0 0 1-.375.375h-4.8a.375.375 0 0 1-.362-.472l.536-2.008a.598.598 0 0 1 .577-.445h4.049ZM21 16.2H3v1.125h18V16.2ZM3 20.325h18V21H3v-.675ZM4.498 18.787a1.087 1.087 0 1 1 2.174.002 1.087 1.087 0 0 1-2.174-.002ZM7.422 18.787a1.087 1.087 0 1 1 2.175.003 1.087 1.087 0 0 1-2.175-.003ZM14.398 18.787a1.087 1.087 0 1 1 2.174.002 1.087 1.087 0 0 1-2.174-.002ZM17.322 18.787a1.087 1.087 0 1 1 2.175.003 1.087 1.087 0 0 1-2.175-.003ZM21 7.275h-5.7a.375.375 0 0 1 0-.75H21v-.75h-5.7a.375.375 0 0 1 0-.75H21V3h-8.25a.375.375 0 0 0-.375.375v8.475L21 11.846V7.275Z" fill="#fff"/></g><defs><clipPath id="a"><path fill="#fff" d="M0 0h24v24H0z"/></clipPath></defs></svg>
